app/dist/common/images/kitakei-co-ltd.svg

<svg height="18" viewBox="0 0 18 18" width="18" xmlns="http://www.w3.org/2000/svg"><path d="m0 0h18v18h-18z" fill="#f0f3fa"/><path d="m4 6.7v6.3h2v-4.9l2.93-1.65 3.07 1.65v2.9h-3v-2h-2v4h7v-6.3l-5.07-2.7z" fill="#0019e6"/></svg>

<!-- by TradingView --><svg width="18" height="18" viewBox="0 0 18 18" xmlns="http://www.w3.org/2000/svg"><path fill="#F0F3FA" d="M0 0h18v18H0z"/><path d="M4 6.7V13h2V8.1l2.93-1.65L12 8.1V11H9V9H7v4h7V6.7L8.93 4 4 6.7Z" fill="#0019E6"/></svg>
